co/calendar_x.svg

<svg viewBox="0 0 24 24" fill="none" xmlns="http://www.w3.org/2000/svg" height="1em" width="1em">
  <path d="M19 22H5a2 2 0 0 1-2-2V6a2 2 0 0 1 2-2h2V2h2v2h6V2h2v2h2a2 2 0 0 1 2 2v14a2 2 0 0 1-2 2ZM5 10v10h14V10H5Zm0-4v2h14V6H5Zm4.706 12.707-1.413-1.414L10.586 15l-2.293-2.293 1.414-1.414L12 13.586l2.293-2.292 1.414 1.414L13.414 15l2.293 2.293-1.413 1.413L12 16.414l-2.293 2.293h-.001Z" fill="#000"/>
</svg>

<svg viewBox="0 0 24 24" fill="none" xmlns="http://www.w3.org/2000/svg" height="1em" width="1em">
  <path d="M19 22H5C3.89543 22 3 21.1046 3 20V6C3 4.89543 3.89543 4 5 4H7V2H9V4H15V2H17V4H19C20.1046 4 21 4.89543 21 6V20C21 21.1046 20.1046 22 19 22ZM5 10V20H19V10H5ZM5 6V8H19V6H5ZM9.706 18.707L8.293 17.293L10.586 15L8.293 12.707L9.707 11.293L12 13.586L14.293 11.294L15.707 12.708L13.414 15L15.707 17.293L14.294 18.706L12 16.414L9.707 18.707H9.706Z" fill="black"/>
</svg>
